images/icon/whatsapp-icon.svg

<svg height="100" viewBox="0 0 100 100" width="100" xmlns="http://www.w3.org/2000/svg"><path d="m50 4c-25.363281 0-46 20.636719-46 46 0 7.921875 2.046875 15.707031 5.925781 22.578125l-5.851562 20.882813c-.191407.683593-.007813 1.421874.488281 1.929687.382812.394531.902344.609375 1.4375.609375.160156 0 .320312-.019531.480469-.058594l21.792969-5.398437c6.652343 3.574219 14.148437 5.457031 21.726562 5.457031 25.363281 0 46-20.636719 46-46s-20.636719-46-46-46zm23.140625 62.230469c-.984375 2.726562-5.703125 5.210937-7.972656 5.546875-2.035157.296875-4.613281.425781-7.441407-.464844-1.710937-.539062-3.914062-1.253906-6.730468-2.457031-11.847656-5.050781-19.582032-16.828125-20.175782-17.609375-.589843-.777344-4.820312-6.320313-4.820312-12.058594s3.050781-8.558594 4.132812-9.726562c1.085938-1.167969 2.363282-1.460938 3.152344-1.460938.785156 0 1.574219.011719 2.261719.042969.726563.035156 1.699219-.273438 2.660156 2 .984375 2.335937 3.34375 8.074219 3.636719 8.660156.296875.585937.492188 1.265625.101562 2.042969-.394531.78125-.589843 1.265625-1.179687 1.949218-.59375.679688-1.242187 1.519532-1.773437 2.042969-.59375.582031-1.207032 1.210938-.519532 2.378907.6875 1.167968 3.058594 4.988281 6.570313 8.078124 4.511719 3.972657 8.316406 5.203126 9.496093 5.789063 1.179688.582031 1.871094.484375 2.558594-.292969.6875-.78125 2.953125-3.40625 3.738282-4.570312.785156-1.167969 1.574218-.976563 2.65625-.585938 1.085937.390625 6.890624 3.207032 8.070312 3.792969 1.179688.582031 1.96875.875 2.265625 1.363281.296875.484375.296875 2.820313-.6875 5.539063zm0 0" fill="#fff"/></svg>

<?xml version="1.0" encoding="UTF-8"?>
<svg xmlns="http://www.w3.org/2000/svg" xmlns:xlink="http://www.w3.org/1999/xlink" viewBox="0 0 100 100" width="100px" height="100px">
<g id="surface120358261">
<path style=" stroke:none;fill-rule:nonzero;fill:rgb(100%,100%,100%);fill-opacity:1;" d="M 50 4 C 24.636719 4 4 24.636719 4 50 C 4 57.921875 6.046875 65.707031 9.925781 72.578125 L 4.074219 93.460938 C 3.882812 94.144531 4.066406 94.882812 4.5625 95.390625 C 4.945312 95.785156 5.464844 96 6 96 C 6.160156 96 6.320312 95.980469 6.480469 95.941406 L 28.273438 90.542969 C 34.925781 94.117188 42.421875 96 50 96 C 75.363281 96 96 75.363281 96 50 C 96 24.636719 75.363281 4 50 4 Z M 73.140625 66.230469 C 72.15625 68.957031 67.4375 71.441406 65.167969 71.777344 C 63.132812 72.074219 60.554688 72.203125 57.726562 71.3125 C 56.015625 70.773438 53.8125 70.058594 50.996094 68.855469 C 39.148438 63.804688 31.414062 52.027344 30.820312 51.246094 C 30.230469 50.46875 26 44.925781 26 39.1875 C 26 33.449219 29.050781 30.628906 30.132812 29.460938 C 31.21875 28.292969 32.496094 28 33.285156 28 C 34.070312 28 34.859375 28.011719 35.546875 28.042969 C 36.273438 28.078125 37.246094 27.769531 38.207031 30.042969 C 39.191406 32.378906 41.550781 38.117188 41.84375 38.703125 C 42.140625 39.289062 42.335938 39.96875 41.945312 40.746094 C 41.550781 41.527344 41.355469 42.011719 40.765625 42.695312 C 40.171875 43.375 39.523438 44.214844 38.992188 44.738281 C 38.398438 45.320312 37.785156 45.949219 38.472656 47.117188 C 39.160156 48.285156 41.53125 52.105469 45.042969 55.195312 C 49.554688 59.167969 53.359375 60.398438 54.539062 60.984375 C 55.71875 61.566406 56.410156 61.46875 57.097656 60.691406 C 57.785156 59.910156 60.050781 57.285156 60.835938 56.121094 C 61.621094 54.953125 62.410156 55.144531 63.492188 55.535156 C 64.578125 55.925781 70.382812 58.742188 71.5625 59.328125 C 72.742188 59.910156 73.53125 60.203125 73.828125 60.691406 C 74.125 61.175781 74.125 63.511719 73.140625 66.230469 Z M 73.140625 66.230469 "/>
</g>
</svg>
